src/assets/icons/tab-bar/settings-android.svg

<?xml version="1.0" encoding="UTF-8"?>
<svg width="32px" height="24px" viewBox="0 0 32 24" version="1.1" xmlns="http://www.w3.org/2000/svg" xmlns:xlink="http://www.w3.org/1999/xlink">
    <title>tab-settings-android</title>
    <g id="tab-settings-android" stroke="none" stroke-width="1" fill="none" fill-rule="evenodd">
        <path d="M23.135,10.784 C21.832,10.458 21.214,8.966 21.905,7.815 C22.227,7.279 22.13,6.817 21.811,6.499 L21.501,6.189 C21.183,5.871 20.721,5.774 20.185,6.095 C19.033,6.786 17.541,6.168 17.216,4.865 C17.065,4.258 16.669,4 16.219,4 L15.781,4 C15.331,4 14.936,4.258 14.784,4.865 C14.458,6.168 12.966,6.786 11.815,6.095 C11.279,5.773 10.816,5.87 10.498,6.188 L10.188,6.498 C9.87,6.816 9.773,7.279 10.095,7.815 C10.786,8.967 10.168,10.459 8.865,10.784 C8.26,10.935 8,11.33 8,11.781 L8,12.219 C8,12.669 8.258,13.064 8.865,13.216 C10.168,13.542 10.786,15.034 10.095,16.185 C9.773,16.721 9.87,17.183 10.189,17.501 L10.499,17.811 C10.818,18.13 11.281,18.226 11.815,17.905 C12.967,17.214 14.459,17.832 14.784,19.135 C14.935,19.742 15.331,20 15.781,20 L16.219,20 C16.669,20 17.064,19.742 17.216,19.135 C17.542,17.832 19.034,17.214 20.185,17.905 C20.72,18.226 21.182,18.13 21.501,17.811 L21.811,17.501 C22.129,17.183 22.226,16.721 21.905,16.185 C21.214,15.033 21.832,13.541 23.135,13.216 C23.742,13.065 24,12.669 24,12.219 L24,11.781 C24,11.33 23.74,10.935 23.135,10.784 Z M16,15 C14.343,15 13,13.657 13,12 C13,10.343 14.343,9 16,9 C17.657,9 19,10.343 19,12 C19,13.657 17.657,15 16,15 Z" id="Shape" fill="#B2B2B2" fill-rule="nonzero"></path>
    </g>
</svg>

<svg xmlns="http://www.w3.org/2000/svg" viewBox="0 0 32 24"><defs/><path fill="currentColor" fill-rule="nonzero" d="M23.14 10.78a2 2 0 01-1.23-2.96c.32-.54.22-1-.1-1.32l-.3-.31c-.33-.32-.79-.42-1.33-.1a2 2 0 01-2.96-1.22c-.15-.61-.55-.87-1-.87h-.44c-.45 0-.84.26-1 .87a2 2 0 01-2.96 1.22c-.54-.32-1-.22-1.32.1l-.31.3c-.32.33-.42.79-.1 1.33a2 2 0 01-1.22 2.96c-.61.16-.87.55-.87 1v.44c0 .45.26.84.87 1a2 2 0 011.23 2.96c-.33.54-.23 1 .09 1.32l.3.31c.33.32.8.42 1.32.1a2 2 0 012.97 1.23c.16.6.55.86 1 .86h.44c.45 0 .84-.26 1-.86a2 2 0 012.96-1.23c.54.32 1 .22 1.32-.1l.31-.3c.32-.33.42-.79.1-1.33a2 2 0 011.23-2.96c.6-.16.86-.55.86-1v-.44c0-.45-.26-.84-.86-1zM16 15a3 3 0 110-6 3 3 0 010 6z"/></svg>
